X:1
T:Jesu Dulcis Memoria, LM
T:Jesu Dulcis Memoria, LM
T:Köln Gesangbuch, 1619
T:Public Domain Courtesy of the Cyber Hymnal™
C:Köln Gesangbuch, 1619
Z:Public Domain
Z:Courtesy of the Cyber Hymnal™
%%score ( 1 2 ) ( 3 4 )
L:1/8
Q:1/4=113
M:none
K:D
V:1 treble 
V:2 treble 
V:3 bass 
V:4 bass 
V:1
 [A,D]2 | [CE]2 ([DF]2 [EA]2) | (A2 G2) ([DF]2 E2) | ([DG]2 [DF]2) ([A,E][B,D]) | [CE]2 (D2 F2) | %5
 [EA]2 (A2 B2) | [GB]2 ([GB]2 [EA]2) | ([DA]2 [Fd]2) ([Ac]2 [GB][FA]) | [GB]2 (B2 d2) | %9
 [DA]2 ([CA]2 [EG]2) | [DF]2 ([CE]2 D2) | [CE]2 [B,E]2 [CF]2 | [CF]4 D2 | [CE]2 [DF]2 [EA]2 | %14
 (A2 G2) ([DF]2 E2) | [DG]2 [DF]2 ([A,E][B,D]) | [CE]4 |] %17
V:2
 x2 | x6 | D4 E2 x2 | x6 | x2 D4 | x2 F4 | x6 | x8 | x2 D4 | x6 | x4 D2 | x6 | x4 D2 | x6 | %14
 D4 E2 x2 | x6 | x4 |] %17
V:3
 [D,F,]2 | [A,,A,]2 A,4 | (D2 B,2) A,4 | ([B,,B,]2 [D,A,]2) ([C,A,][B,,^G,]) | %4
 [A,,A,]2 ([D,F,]2 [B,,B,]2) | [A,,C]2 ([F,C]2 [D,D]2) | [G,D]2 (D2 C2) | D4 D4 | [G,D]2 G,4 | %9
 [D,F,]2 A,4 | [D,A,]2 A,4 | A,2 [G,B,]2 [F,^A,]2 | [F,^A,]4 [F,=A,]2 | [E,A,]2 A,4 | %14
 (D2 B,2) A,4 | [B,,B,]2 [D,A,]2 ([C,A,][B,,^G,]) | [A,,A,]4 |] %17
V:4
 x2 | x2 (D,2 C,2) | B,,4 (D,2 C,2) | x6 | x6 | x6 | x2 G,4 | (F,2 D,2) (F,2 G,D,) | %8
 x2 (G,,2 B,,2) | x2 (A,,2 C,2) | x2 (G,2 F,2) | ^A,2 x4 | x6 | x2 (D,2 C,2) | B,,4 (D,2 C,2) | %15
 x6 | x4 |] %17

